X: 1
T: Tulchan Lodge
C: J Scott Skinner
R: strathspey
Z: 2011 John Chambers <jc:trillian.mit.edu>
B: Strathspey Addiversary Collection p.13
M: C
L: 1/8
K: A
A |\
"A"C<E A>B c>B A2 | "D"D<F B>c "E"d>c B2 | "A"C<E A>B c>A e>c | "Bm"(3dcB (3AGF "E7"(3EFE (3DCB, |
"A"C<E A>B c>B A2 | "D"D<F B>c "E"d>c B2 | "A"C<E A>B c>A "D"a>f | "E"(3efe dcB "A"c<A A |]
g |\
"A"a<A c>e a>e c>A | "D"D<F B>c "E"d>e f>g | "A"a<A c>e a>e c>A | "Bm"(3def (3Bcd "E"GAB (3efg |
"A"a<A c>e a>e c>A | "D"D<F B>A "E"GF E>D | "A"C<E A>B c>A "D"a>f | "E"(3efe dcB "A"c<A A |]
